images/THKD.svg

<svg height="250" viewBox="0 0 250 250" width="250" xmlns="http://www.w3.org/2000/svg"><path d="m0 23.4375c0-12.945312 10.492188-23.4375 23.4375-23.4375h203.125c12.945312 0 23.4375 10.492188 23.4375 23.4375v203.125c0 12.945312-10.492188 23.4375-23.4375 23.4375h-203.125c-12.945312 0-23.4375-10.492188-23.4375-23.4375zm0 0" fill="#f57a21"/><g fill="#fff"><path d="m212.175781 203.820312c0-9.796874-4.964843-14.117187-14.503906-14.117187h-8.507813v29.648437h8.894532c9.347656 0 14.117187-4.1875 14.117187-13.984374zm0 0"/><path d="m23.4375 166.015625c-8.628906 0-15.625 6.996094-15.625 15.625v44.921875c0 8.628906 6.996094 15.625 15.625 15.625h203.125c8.628906 0 15.625-6.996094 15.625-15.625v-44.921875c0-8.628906-6.996094-15.625-15.625-15.625zm43.492188 15.570313v8.183593h-14.824219v37.769531h-9.539063v-37.769531h-14.179687v-8.183593zm50.351562 45.953124h-9.28125v-18.5h-22.496094v18.5h-9.410156v-45.953124h9.410156v18.496093h22.496094v-18.496093h9.28125zm44.933594 0h10.894531l-18.179687-28.875 17.148437-17.082031h-12.054687l-21.335938 21.527344v-21.523437h-9.40625v45.953124h9.40625v-13.984374l9.476562-9.347657zm59.433594-21.65625c0 14.890626-9.023438 21.65625-23.136719 21.65625h-18.691407v-45.953124h18.238282c14.246094 0 23.589844 6.832031 23.589844 21.847656zm0 0" fill-rule="evenodd"/><path d="m74.21875 28.320312h34.179688c0 18.875-15.304688 34.179688-34.179688 34.179688zm0 0"/><path d="m142.578125 28.320312c-18.875 0-34.179687 15.304688-34.179687 34.179688v75.195312h34.179687v-75.195312h34.179687v-34.179688zm0 0"/></g></svg>

<svg xmlns="http://www.w3.org/2000/svg" xmlns:xlink="http://www.w3.org/1999/xlink" width="250px" height="250px" viewBox="0 0 250 250" version="1.1">
<g id="surface1">
<path style=" stroke:none;fill-rule:nonzero;fill:rgb(96.078432%,47.843137%,12.941177%);fill-opacity:1;" d="M 0 23.4375 C 0 10.492188 10.492188 0 23.4375 0 L 226.5625 0 C 239.507812 0 250 10.492188 250 23.4375 L 250 226.5625 C 250 239.507812 239.507812 250 226.5625 250 L 23.4375 250 C 10.492188 250 0 239.507812 0 226.5625 Z M 0 23.4375 "/>
<path style=" stroke:none;fill-rule:nonzero;fill:rgb(100%,100%,100%);fill-opacity:1;" d="M 212.175781 203.820312 C 212.175781 194.023438 207.210938 189.703125 197.671875 189.703125 L 189.164062 189.703125 L 189.164062 219.351562 L 198.058594 219.351562 C 207.40625 219.351562 212.175781 215.164062 212.175781 205.367188 Z M 212.175781 203.820312 "/>
<path style=" stroke:none;fill-rule:evenodd;fill:rgb(100%,100%,100%);fill-opacity:1;" d="M 23.4375 166.015625 C 14.808594 166.015625 7.8125 173.011719 7.8125 181.640625 L 7.8125 226.5625 C 7.8125 235.191406 14.808594 242.1875 23.4375 242.1875 L 226.5625 242.1875 C 235.191406 242.1875 242.1875 235.191406 242.1875 226.5625 L 242.1875 181.640625 C 242.1875 173.011719 235.191406 166.015625 226.5625 166.015625 Z M 66.929688 181.585938 L 66.929688 189.769531 L 52.105469 189.769531 L 52.105469 227.539062 L 42.566406 227.539062 L 42.566406 189.769531 L 28.386719 189.769531 L 28.386719 181.585938 Z M 117.28125 227.539062 L 108 227.539062 L 108 209.039062 L 85.503906 209.039062 L 85.503906 227.539062 L 76.09375 227.539062 L 76.09375 181.585938 L 85.503906 181.585938 L 85.503906 200.082031 L 108 200.082031 L 108 181.585938 L 117.28125 181.585938 Z M 162.214844 227.539062 L 173.109375 227.539062 L 154.929688 198.664062 L 172.078125 181.582031 L 160.023438 181.582031 L 138.6875 203.109375 L 138.6875 181.585938 L 129.28125 181.585938 L 129.28125 227.539062 L 138.6875 227.539062 L 138.6875 213.554688 L 148.164062 204.207031 Z M 221.648438 205.882812 C 221.648438 220.773438 212.625 227.539062 198.511719 227.539062 L 179.820312 227.539062 L 179.820312 181.585938 L 198.058594 181.585938 C 212.304688 181.585938 221.648438 188.417969 221.648438 203.433594 Z M 221.648438 205.882812 "/>
<path style=" stroke:none;fill-rule:nonzero;fill:rgb(100%,100%,100%);fill-opacity:1;" d="M 74.21875 28.320312 L 108.398438 28.320312 C 108.398438 47.195312 93.09375 62.5 74.21875 62.5 Z M 74.21875 28.320312 "/>
<path style=" stroke:none;fill-rule:nonzero;fill:rgb(100%,100%,100%);fill-opacity:1;" d="M 142.578125 28.320312 C 123.703125 28.320312 108.398438 43.625 108.398438 62.5 L 108.398438 137.695312 L 142.578125 137.695312 L 142.578125 62.5 L 176.757812 62.5 L 176.757812 28.320312 Z M 142.578125 28.320312 "/>
</g>
</svg>
